X: 30684
T: Orange And Blue, The
R: strathspey
M: 4/4
K: Cmajor
f/|e>c (3cBc G>cE>c|e>c (3ege c2 c>e|f>d (3dcd A>dd>c|B>G (3BdB G2 G>f|
c>c c2 B>cE>c|e>c (3ege c2 c>g|a>fg>e f>de>c|(3BdB (3GAB c2 c3/2||
f/|e>g (3gag e>g (3gag|e>c (3ege c2 c>e|f>a (3ac’a f>a (3ac’a|f>d (3faf d2 d>f|
e>g (3gag e>g (3gag|e>c (3ege c2 c>g|(3afa (3geg (3fdf (3ece|(3BdB (3GAB c2 c3/2||

